dist/svgs/git-issue.svg

<svg xmlns="http://www.w3.org/2000/svg" viewBox="0 0 512 512"><path d="M219 329h74v73h-74v-73zm0-219h74v183h-74V110zM256 0q53 0 99.5 20T437 75t55 81.5 20 99.5-20 99.5-55 81.5-81.5 55-99.5 20-99.5-20T75 437t-55-81.5T0 256t20-99.5T75 75t81.5-55T256 0zm0 457q42 0 78.5-16t63.5-43 43-63.5 16-78.5-16-78.5-43-63.5-63.5-43T256 55t-78.5 16-63.5 43-43 63.5T55 256t16 78.5 43 63.5 63.5 43 78.5 16z"/></svg>

<?xml version="1.0" encoding="UTF-8" standalone="no"?><svg   xmlns:svg="http://www.w3.org/2000/svg"   xmlns="http://www.w3.org/2000/svg"   version="1.1"   width="512"   height="512"   viewBox="0 0 512 512">  <path     d="M219 329H293V402H219V329zM219 110H293V293H219V110zM256 0Q309 0 355.5 20T437 75T492 156.5T512 256T492 355.5T437 437T355.5 492T256 512T156.5 492T75 437T20 355.5T0 256T20 156.5T75 75T156.5 20T256 0zM256 457Q298 457 334.5 441T398 398T441 334.5T457 256T441 177.5T398 114T334.5 71T256 55T177.5 71T114 114T71 177.5T55 256T71 334.5T114 398T177.5 441T256 457z"     id="git-issue" /></svg>
